X:66
T:Belharbour Hornpipe, The
R:hornpipe
H:Bar 1 also played |G2GB G2Bd|
D:Sean Keane, Matt Molloy, Liam O'Flynn: The Fire Aflame
Z:id:hn-hornpipe-66
M:C|
K:G
GD|:GA (3AGF G2Bd|(3gag fg dGBd|eGBd BAGB|(3ABA (3GFE D2EF|
GA (3AGF G2Bd|(3gag fg dGBd|eGBd BAGD|1 G2GB G2GD:|2 GA (3AGF G2Bc||
|:dGBd eGBd|g2bg eGBd|cecA ~B3G|(3ABA (3GFE D2Bc|
dGBd eGBd|g2bg eGBG|DGBd BAGD|1 GB (3AGF G2Bc:|2 G2GB G2||
<end>
<start>
